resources/svg/microphone.svg

<svg viewBox="0 0 24 24"><path fill="none" stroke="currentColor" stroke-width="2" d="M8 11c0 3 1.79 4 4 4s4-1 4-4V5c0-3-1.79-4-4-4S8 2 8 5v6zM4 9v2c0 5 3.582 8 8 8s8-3 8-8V9m-8 15v-5"/></svg>

<svg xmlns="http://www.w3.org/2000/svg" viewBox="0 0 24 24" fill="currentColor"><path fill="none" stroke="currentColor" stroke-width="2" d="M8,11 C8,14 9.790861,15 12,15 C14.209139,15 16,14 16,11 L16,5 C16,2 14.209139,1 12,1 C9.790861,1 8,2 8,5 L8,11 Z M4,9 L4,11 C4,16 7.581722,19 12,19 C16.418278,19 20,16 20,11 L20,9 M12,24 L12,19"/></svg>
